ligands/monodentate/simes.svg

<svg height="256" viewBox="0 0 256 256" width="256" xmlns="http://www.w3.org/2000/svg"><path d="m0 0h256v256h-256z" fill="#fff"/><ellipse cx="114.6" cy="116.1" fill="#ff7f7f" fill-rule="evenodd" rx="8.5" ry="8.5" stroke="#ff7f7f"/><g fill="none" stroke="#000" stroke-width="2"><path d="m215 117.1-12.3-16.8"/><path d="m202.7 100.3 11.5-25.8"/><path d="m199.9 96.3 9.4-21.3"/><path d="m214.2 74.5-16.6-22.8"/><path d="m197.6 51.7 7.3-16.4"/><path d="m197.6 51.7-28.1 3"/><path d="m195.6 56.2-23.2 2.4"/><path d="m169.5 54.7-11.4 25.8"/><path d="m158.1 80.5 16.6 22.8"/><path d="m162.9 79.9 13.8 18.9"/><path d="m174.7 103.3-8.8 19.8"/><path d="m168.7 138.5 8.7 15"/><path d="m177.4 153.5-18.9 21"/><path d="m158.5 174.5-19.8-8.8"/><path d="m133.3 157 2.3-22.1"/><path d="m138.2 134.4-16.1-14.5"/><path d="m135.4 137.6-16.2-14.5"/><path d="m126.7 166.5-18.4 10.7"/><path d="m108.3 177.2v28.2"/><path d="m104 179.6.1 23.3"/><path d="m108.3 205.4 18.4 10.6"/><path d="m108.3 205.4-24.4 14.1"/><path d="m83.9 219.5-24.5-14.1"/><path d="m83.9 214.6-20.3-11.6"/><path d="m59.4 205.4v-28.2"/><path d="m59.4 177.2 24.4-14.1"/><path d="m63.6 179.6 20.2-11.7"/><path d="m83.8 163.1v-18.9"/><path d="m59.4 205.4-18.4 10.7"/><path d="m158.1 80.5-22.1 2.3"/><path d="m174.7 103.3 28-3"/><path d="m135.6 134.9 21.6-4.6"/><path d="m83.8 163.1 24.5 14.1"/><path d="m213.6 75.8.6-1.3-.8-1.1" stroke-miterlimit="10"/><path d="m170.9 54.5-1.4.2-.5 1.2" stroke-miterlimit="10"/><path d="m176.9 152.7.5.8-1 1" stroke-miterlimit="10"/><path d="m159.4 173.4-.9 1.1-1-.5" stroke-miterlimit="10"/><path d="m135.5 136.1.1-1.2 1.1-.2" stroke-miterlimit="10"/><path d="m85.1 218.8-1.2.7-1.3-.7" stroke-miterlimit="10"/><path d="m59.4 178.6v-1.4l1.2-.7" stroke-miterlimit="10"/></g><text font-family="sans-serif" font-size="16" x="214.3" y="131.6">C</text><text font-family="sans-serif" font-size="16" x="226" y="131.6">H</text><text font-family="sans-serif" font-size="11" x="237.6" y="138.4">3</text><text font-family="sans-serif" font-size="16" x="204" y="34.4">C</text><text font-family="sans-serif" font-size="16" x="215.6" y="34.4">H</text><text font-family="sans-serif" font-size="11" x="227.3" y="41.1">3</text><text font-family="sans-serif" font-size="16" x="158.1" y="137.5">N</text><text font-family="sans-serif" font-size="16" x="127.6" y="171.5">N</text><text x="109.6" y="124.6"/><text font-family="sans-serif" font-size="16" x="127.7" y="227.9">C</text><text font-family="sans-serif" font-size="16" x="139.3" y="227.9">H</text><text font-family="sans-serif" font-size="11" x="151" y="234.7">3</text><text font-family="sans-serif" font-size="16" x="78.7" y="143.3">C</text><text font-family="sans-serif" font-size="16" x="90.4" y="143.3">H</text><text font-family="sans-serif" font-size="11" x="102.1" y="150.1">3</text><text font-family="sans-serif" font-size="16" x="12.8" y="228">H</text><text font-family="sans-serif" font-size="11" x="24.5" y="234.8">3</text><text font-family="sans-serif" font-size="16" x="29.9" y="228">C</text><text font-family="sans-serif" font-size="16" x="107.8" y="91.9">H</text><text font-family="sans-serif" font-size="11" x="119.5" y="98.7">3</text><text font-family="sans-serif" font-size="16" x="124.9" y="91.9">C</text></svg>

<?xml version='1.0' encoding='iso-8859-1'?>
<svg version='1.1' baseProfile='full'
              xmlns='http://www.w3.org/2000/svg'
                      xmlns:rdkit='http://www.rdkit.org/xml'
                      xmlns:xlink='http://www.w3.org/1999/xlink'
                  xml:space='preserve'
width='256px' height='256px' viewBox='0 0 256 256'>
<!-- END OF HEADER -->
<rect style='opacity:1.0;fill:#FFFFFF;stroke:none' width='256.0' height='256.0' x='0.0' y='0.0'> </rect>
<ellipse cx='114.6' cy='116.1' rx='8.5' ry='8.5' class='atom-13'  style='fill:#FF7F7F;fill-rule:evenodd;stroke:#FF7F7F;stroke-width:1.0px;stroke-linecap:butt;stroke-linejoin:miter;stroke-opacity:1' />
<path class='bond-0 atom-0 atom-1' d='M 215.0,117.1 L 202.7,100.3' style='fill:none;fill-rule:evenodd;stroke:#000000;stroke-width:2.0px;stroke-linecap:butt;stroke-linejoin:miter;stroke-opacity:1' />
<path class='bond-1 atom-1 atom-2' d='M 202.7,100.3 L 214.2,74.5' style='fill:none;fill-rule:evenodd;stroke:#000000;stroke-width:2.0px;stroke-linecap:butt;stroke-linejoin:miter;stroke-opacity:1' />
<path class='bond-1 atom-1 atom-2' d='M 199.9,96.3 L 209.3,75.0' style='fill:none;fill-rule:evenodd;stroke:#000000;stroke-width:2.0px;stroke-linecap:butt;stroke-linejoin:miter;stroke-opacity:1' />
<path class='bond-2 atom-2 atom-3' d='M 214.2,74.5 L 197.6,51.7' style='fill:none;fill-rule:evenodd;stroke:#000000;stroke-width:2.0px;stroke-linecap:butt;stroke-linejoin:miter;stroke-opacity:1' />
<path class='bond-3 atom-3 atom-4' d='M 197.6,51.7 L 204.9,35.3' style='fill:none;fill-rule:evenodd;stroke:#000000;stroke-width:2.0px;stroke-linecap:butt;stroke-linejoin:miter;stroke-opacity:1' />
<path class='bond-4 atom-3 atom-5' d='M 197.6,51.7 L 169.5,54.7' style='fill:none;fill-rule:evenodd;stroke:#000000;stroke-width:2.0px;stroke-linecap:butt;stroke-linejoin:miter;stroke-opacity:1' />
<path class='bond-4 atom-3 atom-5' d='M 195.6,56.2 L 172.4,58.6' style='fill:none;fill-rule:evenodd;stroke:#000000;stroke-width:2.0px;stroke-linecap:butt;stroke-linejoin:miter;stroke-opacity:1' />
<path class='bond-5 atom-5 atom-6' d='M 169.5,54.7 L 158.1,80.5' style='fill:none;fill-rule:evenodd;stroke:#000000;stroke-width:2.0px;stroke-linecap:butt;stroke-linejoin:miter;stroke-opacity:1' />
<path class='bond-6 atom-6 atom-7' d='M 158.1,80.5 L 174.7,103.3' style='fill:none;fill-rule:evenodd;stroke:#000000;stroke-width:2.0px;stroke-linecap:butt;stroke-linejoin:miter;stroke-opacity:1' />
<path class='bond-6 atom-6 atom-7' d='M 162.9,79.9 L 176.7,98.8' style='fill:none;fill-rule:evenodd;stroke:#000000;stroke-width:2.0px;stroke-linecap:butt;stroke-linejoin:miter;stroke-opacity:1' />
<path class='bond-7 atom-7 atom-8' d='M 174.7,103.3 L 165.9,123.1' style='fill:none;fill-rule:evenodd;stroke:#000000;stroke-width:2.0px;stroke-linecap:butt;stroke-linejoin:miter;stroke-opacity:1' />
<path class='bond-8 atom-8 atom-9' d='M 168.7,138.5 L 177.4,153.5' style='fill:none;fill-rule:evenodd;stroke:#000000;stroke-width:2.0px;stroke-linecap:butt;stroke-linejoin:miter;stroke-opacity:1' />
<path class='bond-9 atom-9 atom-10' d='M 177.4,153.5 L 158.5,174.5' style='fill:none;fill-rule:evenodd;stroke:#000000;stroke-width:2.0px;stroke-linecap:butt;stroke-linejoin:miter;stroke-opacity:1' />
<path class='bond-10 atom-10 atom-11' d='M 158.5,174.5 L 138.7,165.7' style='fill:none;fill-rule:evenodd;stroke:#000000;stroke-width:2.0px;stroke-linecap:butt;stroke-linejoin:miter;stroke-opacity:1' />
<path class='bond-11 atom-11 atom-12' d='M 133.3,157.0 L 135.6,134.9' style='fill:none;fill-rule:evenodd;stroke:#000000;stroke-width:2.0px;stroke-linecap:butt;stroke-linejoin:miter;stroke-opacity:1' />
<path class='bond-12 atom-11 atom-14' d='M 126.7,166.5 L 108.3,177.2' style='fill:none;fill-rule:evenodd;stroke:#000000;stroke-width:2.0px;stroke-linecap:butt;stroke-linejoin:miter;stroke-opacity:1' />
<path class='bond-13 atom-14 atom-15' d='M 108.3,177.2 L 108.3,205.4' style='fill:none;fill-rule:evenodd;stroke:#000000;stroke-width:2.0px;stroke-linecap:butt;stroke-linejoin:miter;stroke-opacity:1' />
<path class='bond-13 atom-14 atom-15' d='M 104.0,179.6 L 104.1,202.9' style='fill:none;fill-rule:evenodd;stroke:#000000;stroke-width:2.0px;stroke-linecap:butt;stroke-linejoin:miter;stroke-opacity:1' />
<path class='bond-14 atom-15 atom-16' d='M 108.3,205.4 L 126.7,216.0' style='fill:none;fill-rule:evenodd;stroke:#000000;stroke-width:2.0px;stroke-linecap:butt;stroke-linejoin:miter;stroke-opacity:1' />
<path class='bond-15 atom-15 atom-17' d='M 108.3,205.4 L 83.9,219.5' style='fill:none;fill-rule:evenodd;stroke:#000000;stroke-width:2.0px;stroke-linecap:butt;stroke-linejoin:miter;stroke-opacity:1' />
<path class='bond-16 atom-17 atom-18' d='M 83.9,219.5 L 59.4,205.4' style='fill:none;fill-rule:evenodd;stroke:#000000;stroke-width:2.0px;stroke-linecap:butt;stroke-linejoin:miter;stroke-opacity:1' />
<path class='bond-16 atom-17 atom-18' d='M 83.9,214.6 L 63.6,203.0' style='fill:none;fill-rule:evenodd;stroke:#000000;stroke-width:2.0px;stroke-linecap:butt;stroke-linejoin:miter;stroke-opacity:1' />
<path class='bond-17 atom-18 atom-19' d='M 59.4,205.4 L 59.4,177.2' style='fill:none;fill-rule:evenodd;stroke:#000000;stroke-width:2.0px;stroke-linecap:butt;stroke-linejoin:miter;stroke-opacity:1' />
<path class='bond-18 atom-19 atom-20' d='M 59.4,177.2 L 83.8,163.1' style='fill:none;fill-rule:evenodd;stroke:#000000;stroke-width:2.0px;stroke-linecap:butt;stroke-linejoin:miter;stroke-opacity:1' />
<path class='bond-18 atom-19 atom-20' d='M 63.6,179.6 L 83.8,167.9' style='fill:none;fill-rule:evenodd;stroke:#000000;stroke-width:2.0px;stroke-linecap:butt;stroke-linejoin:miter;stroke-opacity:1' />
<path class='bond-19 atom-20 atom-21' d='M 83.8,163.1 L 83.8,144.2' style='fill:none;fill-rule:evenodd;stroke:#000000;stroke-width:2.0px;stroke-linecap:butt;stroke-linejoin:miter;stroke-opacity:1' />
<path class='bond-20 atom-18 atom-22' d='M 59.4,205.4 L 41.0,216.1' style='fill:none;fill-rule:evenodd;stroke:#000000;stroke-width:2.0px;stroke-linecap:butt;stroke-linejoin:miter;stroke-opacity:1' />
<path class='bond-21 atom-6 atom-23' d='M 158.1,80.5 L 136.0,82.8' style='fill:none;fill-rule:evenodd;stroke:#000000;stroke-width:2.0px;stroke-linecap:butt;stroke-linejoin:miter;stroke-opacity:1' />
<path class='bond-22 atom-7 atom-1' d='M 174.7,103.3 L 202.7,100.3' style='fill:none;fill-rule:evenodd;stroke:#000000;stroke-width:2.0px;stroke-linecap:butt;stroke-linejoin:miter;stroke-opacity:1' />
<path class='bond-23 atom-12 atom-8' d='M 135.6,134.9 L 157.2,130.3' style='fill:none;fill-rule:evenodd;stroke:#000000;stroke-width:2.0px;stroke-linecap:butt;stroke-linejoin:miter;stroke-opacity:1' />
<path class='bond-24 atom-20 atom-14' d='M 83.8,163.1 L 108.3,177.2' style='fill:none;fill-rule:evenodd;stroke:#000000;stroke-width:2.0px;stroke-linecap:butt;stroke-linejoin:miter;stroke-opacity:1' />
<path class='bond-25 atom-12 atom-13' d='M 135.6,134.9 L 120.6,121.5' style='fill:none;fill-rule:evenodd;stroke:#000000;stroke-width:2.0px;stroke-linecap:butt;stroke-linejoin:miter;stroke-opacity:1' />
<path d='M 213.6,75.8 L 214.2,74.5 L 213.4,73.4' style='fill:none;stroke:#000000;stroke-width:2.0px;stroke-linecap:butt;stroke-linejoin:miter;stroke-miterlimit:10;stroke-opacity:1;' />
<path d='M 170.9,54.5 L 169.5,54.7 L 169.0,55.9' style='fill:none;stroke:#000000;stroke-width:2.0px;stroke-linecap:butt;stroke-linejoin:miter;stroke-miterlimit:10;stroke-opacity:1;' />
<path d='M 176.9,152.7 L 177.4,153.5 L 176.4,154.5' style='fill:none;stroke:#000000;stroke-width:2.0px;stroke-linecap:butt;stroke-linejoin:miter;stroke-miterlimit:10;stroke-opacity:1;' />
<path d='M 159.4,173.4 L 158.5,174.5 L 157.5,174.0' style='fill:none;stroke:#000000;stroke-width:2.0px;stroke-linecap:butt;stroke-linejoin:miter;stroke-miterlimit:10;stroke-opacity:1;' />
<path d='M 85.1,218.8 L 83.9,219.5 L 82.6,218.8' style='fill:none;stroke:#000000;stroke-width:2.0px;stroke-linecap:butt;stroke-linejoin:miter;stroke-miterlimit:10;stroke-opacity:1;' />
<path d='M 59.4,178.6 L 59.4,177.2 L 60.6,176.5' style='fill:none;stroke:#000000;stroke-width:2.0px;stroke-linecap:butt;stroke-linejoin:miter;stroke-miterlimit:10;stroke-opacity:1;' />
<text x='214.3' y='131.6' class='atom-0' style='font-size:16px;font-style:normal;font-weight:normal;fill-opacity:1;stroke:none;font-family:sans-serif;text-anchor:start;fill:#000000' >C</text>
<text x='226.0' y='131.6' class='atom-0' style='font-size:16px;font-style:normal;font-weight:normal;fill-opacity:1;stroke:none;font-family:sans-serif;text-anchor:start;fill:#000000' >H</text>
<text x='237.6' y='138.4' class='atom-0' style='font-size:11px;font-style:normal;font-weight:normal;fill-opacity:1;stroke:none;font-family:sans-serif;text-anchor:start;fill:#000000' >3</text>
<text x='204.0' y='34.4' class='atom-4' style='font-size:16px;font-style:normal;font-weight:normal;fill-opacity:1;stroke:none;font-family:sans-serif;text-anchor:start;fill:#000000' >C</text>
<text x='215.6' y='34.4' class='atom-4' style='font-size:16px;font-style:normal;font-weight:normal;fill-opacity:1;stroke:none;font-family:sans-serif;text-anchor:start;fill:#000000' >H</text>
<text x='227.3' y='41.1' class='atom-4' style='font-size:11px;font-style:normal;font-weight:normal;fill-opacity:1;stroke:none;font-family:sans-serif;text-anchor:start;fill:#000000' >3</text>
<text x='158.1' y='137.5' class='atom-8' style='font-size:16px;font-style:normal;font-weight:normal;fill-opacity:1;stroke:none;font-family:sans-serif;text-anchor:start;fill:#000000' >N</text>
<text x='127.6' y='171.5' class='atom-11' style='font-size:16px;font-style:normal;font-weight:normal;fill-opacity:1;stroke:none;font-family:sans-serif;text-anchor:start;fill:#000000' >N</text>
<text x='109.6' y='124.6' class='atom-13' style='font-size:16px;font-style:normal;font-weight:normal;fill-opacity:1;stroke:none;font-family:sans-serif;text-anchor:start;fill:#000000' ></text>
<text x='127.7' y='227.9' class='atom-16' style='font-size:16px;font-style:normal;font-weight:normal;fill-opacity:1;stroke:none;font-family:sans-serif;text-anchor:start;fill:#000000' >C</text>
<text x='139.3' y='227.9' class='atom-16' style='font-size:16px;font-style:normal;font-weight:normal;fill-opacity:1;stroke:none;font-family:sans-serif;text-anchor:start;fill:#000000' >H</text>
<text x='151.0' y='234.7' class='atom-16' style='font-size:11px;font-style:normal;font-weight:normal;fill-opacity:1;stroke:none;font-family:sans-serif;text-anchor:start;fill:#000000' >3</text>
<text x='78.7' y='143.3' class='atom-21' style='font-size:16px;font-style:normal;font-weight:normal;fill-opacity:1;stroke:none;font-family:sans-serif;text-anchor:start;fill:#000000' >C</text>
<text x='90.4' y='143.3' class='atom-21' style='font-size:16px;font-style:normal;font-weight:normal;fill-opacity:1;stroke:none;font-family:sans-serif;text-anchor:start;fill:#000000' >H</text>
<text x='102.1' y='150.1' class='atom-21' style='font-size:11px;font-style:normal;font-weight:normal;fill-opacity:1;stroke:none;font-family:sans-serif;text-anchor:start;fill:#000000' >3</text>
<text x='12.8' y='228.0' class='atom-22' style='font-size:16px;font-style:normal;font-weight:normal;fill-opacity:1;stroke:none;font-family:sans-serif;text-anchor:start;fill:#000000' >H</text>
<text x='24.5' y='234.8' class='atom-22' style='font-size:11px;font-style:normal;font-weight:normal;fill-opacity:1;stroke:none;font-family:sans-serif;text-anchor:start;fill:#000000' >3</text>
<text x='29.9' y='228.0' class='atom-22' style='font-size:16px;font-style:normal;font-weight:normal;fill-opacity:1;stroke:none;font-family:sans-serif;text-anchor:start;fill:#000000' >C</text>
<text x='107.8' y='91.9' class='atom-23' style='font-size:16px;font-style:normal;font-weight:normal;fill-opacity:1;stroke:none;font-family:sans-serif;text-anchor:start;fill:#000000' >H</text>
<text x='119.5' y='98.7' class='atom-23' style='font-size:11px;font-style:normal;font-weight:normal;fill-opacity:1;stroke:none;font-family:sans-serif;text-anchor:start;fill:#000000' >3</text>
<text x='124.9' y='91.9' class='atom-23' style='font-size:16px;font-style:normal;font-weight:normal;fill-opacity:1;stroke:none;font-family:sans-serif;text-anchor:start;fill:#000000' >C</text>
</svg>
